X:675
T: Thieving Magpie HP
S: "Roche Collection of Traditional Irish Music" [III/60/171]
L: 1/8
M: 4/4
R: hornpipe
K: D
(3ABc | d2 cA BGED | CDEF GBAG | FAdA FAdf | edcB Agfe |
d2 cA BGED | CDEF GBAG | FAdc BGEC | D2 DE D2 :|
ed | ceae ceae | dfaf dfaf | Acec Acef | edcB AGFE |
DCDE FGAF | GFGA BcdB | ABAG FGEC | D2 DE D2 :|
